X:1
T:Singing Glory!
T:Singing Glory!
T:Lucy R. Minor
T:Lucy R. Minor, 1907
T:Public Domain Courtesy of the Cyber Hymnal™
T:Public Domain Courtesy of the Cyber Hymnal™
C:Lucy R. Minor
Z:Public Domain
Z:Courtesy of the Cyber Hymnal™
%%score ( 1 2 ) ( 3 4 )
L:1/8
Q:1/4=105
M:4/4
K:F
V:1 treble 
V:2 treble 
V:3 bass 
V:4 bass 
V:1
 C | C[CF][CF][CG] [FA]3 [GB] | [Ac][FA] F>[FG] [FA]3 [FA] | [EG][EG][EG][FA] [EG] [Ec]3 | %4
w: 1.~I’ve|some- thing in my heart that|Je- sus gave to me, It|makes me feel like sing- ing|
w: 2.~My|Sav- ior loosed my tongue that|I might speak His praise; Since|then I have been sing- ing|
w: 3.~My|Sav- ior took my feet from|out the mi- ry clay; Since|then I have been sing- ing|
w: 4.~O|wea- ry heart and sad, O|hea- vy la- den soul, If|you would feel like sing- ing|
 [Fd][FA] [F=B]>[FG] [Ec]3 [A,C] | [A,C][CF][CF][CG] [FA]3 [GB] | [Ac][FA] [_EG]>[EF] [DB]3 [DB] | %7
w: glo- ry all the day; He|found my cap- tive soul and|gave me li- ber- ty, And|
w: glo- ry all the day; I|love to tell the lost of|Je- sus and His ways, And|
w: glo- ry all the day; He|placed them on the Rock that|shall not pass a- way— I|
w: glo- ry all the day, Just|let the Sav- ior in, and|let Him take con- trol; Then|
 [CA]>[FB] [Fc][Fd] [Fc] [FA]3 | G4 !fermata![CF]3 ||"^Refrain" [FA] | %10
w: now I feel like sing- ing|glo- ry!||
w: oh, it keeps me sing- ing|glo- ry!||
w: can- not keep from sing- ing|glo- ry!|He|
w: you will feel like sing- ing|glo- ry!||
 [Fc]>[Fc] [Fc][Fc] [Fd] [Fc]3 | [Fc]>[EB] [EB][^DA] [EB]3 [EB] | [EB]>[EB] [EB][EB] [Ec] [EB]3 | %13
w: |||
w: |||
w: makes the path grow bright- er|ev- ’ry pass- ing day; He|makes the bur- den light- er|
w: |||
 [FB]>[FA] [FA][F^G] [FA]3 C | C[CF] [CF]>[CG] [FA]3 [GB] | [Ac][FA] [_EG]>[EF] [DB]3 [DB] | %16
w: |||
w: |||
w: all a- long the way; His|Word is my de- light, His|will I now o- bey, And|
w: |||
 [CA]>[FB] [Fc][Fd] [Fc] [FA]3 | G4 !fermata![CF]3 |] %18
w: ||
w: ||
w: all the time I’m sing- ing|glo- ry!|
w: ||
V:2
 C | C x7 | x2 F3/2 x9/2 | x8 | x8 | x8 | x8 | x8 | (E2 C2) x3 || x | x8 | x8 | x8 | x7 C | C x7 | %15
 x8 | x8 | (E2 C2) x3 |] %18
V:3
 [F,A,] | [F,A,][F,A,][F,A,][F,B,] [F,C]3 [F,C] | [F,C][F,C] [F,A,]>[F,B,] [F,C]3 [F,C] | %3
 [C,C][C,C][C,C][C,C] [C,C] [C,G,]3 | [G,=B,][G,B,] [G,D]>[G,B,] [C,C]3 [C,F,] | %5
 F,[F,A,][F,A,][F,B,] [F,C]3 [F,C] | [F,C][F,C] [A,,F,]>[A,,F,] [B,,F,]3 [B,,F,] | %7
 F,>[F,G,] [F,A,][F,B,] [F,A,] [F,C]3 | (C2 B,2) !fermata![F,,A,]3 || F, | %10
 [F,A,]>[F,A,] [F,A,][F,A,] [F,B,] [F,A,]3 | [C,A,]>[C,G,] [C,G,][C,^F,] [C,G,]3 [C,G,] | %12
 [C,G,]>[C,G,] [C,G,][C,G,] [C,A,] [C,G,]3 | [F,D]>[F,C] [F,C][F,=B,] [F,C]3 [F,A,] | %14
 [F,A,][F,A,] [F,A,]>[F,B,] [F,C]3 [F,C] | [F,C][F,C] [A,,F,]>[A,,F,] [B,,F,]3 [B,,F,] | %16
 F,>[F,G,] [F,A,][F,B,] [F,A,] [F,C]3 | (C2 B,2) !fermata![F,,A,]3 |] %18
V:4
 x | x8 | x8 | x8 | x8 | F, x7 | x8 | F,3/2 x13/2 | C,4 x3 || F, | x8 | x8 | x8 | x8 | x8 | x8 | %16
 F,3/2 x13/2 | C,4 x3 |] %18

